X: 3
T: The Tap Room
R: reel
M: 4/4
L: 1/8
K: Edor
E2(3ABc d2Bc|dBAF DEFD|E2BE dEBE|dBAF BEED|E2(3ABc d2Bc|dBAF DEF2|afge fdec|1 dBAF BEED:|2 dBAF BEE2||Bdef gfed|BdAF DEFD|Bdef gfed|BdAF BEE2|Bdef gfed|BdAF DEF2|afge fdec|1 dBAF BEE2:|2 dBAF BEED||


Tune 711	Setting 13777

